X: 34376
T: Rhona's
R: waltz
M: 3/4
K: Dmajor
|:A d>e|f4 e>f|gB3 d2|B2A3 F|A3 A d>e|
f3 f e>f|g3 f e>d|e6|e3 F E>F|
G2e3 d|c4 f>e|d3 e f>g|B3 d d>e|
f2 e2 d2|A3 c B>A|d6|d4 F>E|
D2 E2 F2|G3 a B>d|c2 d>A e>a|f3 a (3fed|
D2 E2 F2|G3 A (3BAG|A6|A2 FE>F|
G2e3 d|c4 f>e|d3 e f>g|B3 d d>e|
f2 e2 d2|A3 cB>A|d6|d3:|

